neru-light-classic/32x32/apps/wow.svg

<?xml version="1.0" encoding="UTF-8" standalone="no"?>
<svg
   xmlns:dc="http://purl.org/dc/elements/1.1/"
   xmlns:cc="http://creativecommons.org/ns#"
   xmlns:rdf="http://www.w3.org/1999/02/22-rdf-syntax-ns#"
   xmlns:svg="http://www.w3.org/2000/svg"
   xmlns="http://www.w3.org/2000/svg"
   xmlns:sodipodi="http://sodipodi.sourceforge.net/DTD/sodipodi-0.dtd"
   xmlns:inkscape="http://www.inkscape.org/namespaces/inkscape"
   height="32"
   width="32"
   version="1"
   id="svg20"
   sodipodi:docname="wow.svg"
   inkscape:version="0.92.1 r">
  <metadata
     id="metadata26">
    <rdf:RDF>
      <cc:Work
         rdf:about="">
        <dc:format>image/svg+xml</dc:format>
        <dc:type
           rdf:resource="http://purl.org/dc/dcmitype/StillImage" />
        <dc:title />
      </cc:Work>
    </rdf:RDF>
  </metadata>
  <defs
     id="defs24">
    <linearGradient
       id="linearGradient4829">
      <stop
         style="stop-color:#f8d812;stop-opacity:1;"
         offset="0"
         id="stop4825" />
      <stop
         style="stop-color:#f8d812;stop-opacity:0;"
         offset="1"
         id="stop4827" />
    </linearGradient>
    <linearGradient
       id="linearGradient4813">
      <stop
         style="stop-color:#eed700;stop-opacity:1;"
         offset="0"
         id="stop4809" />
      <stop
         style="stop-color:#eed700;stop-opacity:0;"
         offset="1"
         id="stop4811" />
    </linearGradient>
  </defs>
  <sodipodi:namedview
     pagecolor="#ffffff"
     bordercolor="#666666"
     borderopacity="1"
     objecttolerance="10"
     gridtolerance="10"
     guidetolerance="10"
     inkscape:pageopacity="0"
     inkscape:pageshadow="2"
     inkscape:window-width="1680"
     inkscape:window-height="970"
     id="namedview22"
     showgrid="false"
     inkscape:zoom="11.313708"
     inkscape:cx="7.4935638"
     inkscape:cy="7.2530667"
     inkscape:current-layer="svg20"
     inkscape:window-x="0"
     inkscape:window-y="0"
     inkscape:window-maximized="1" />
  <rect
     style="opacity:1;fill:#4b5e83;fill-opacity:1;fill-rule:evenodd;stroke:none;stroke-width:1.03534329;stroke-linecap:round;stroke-linejoin:bevel;stroke-miterlimit:4;stroke-dasharray:none;stroke-dashoffset:0;stroke-opacity:1"
     id="rect4497-3"
     width="28.203388"
     height="28.203388"
     x="1.8983059"
     y="1.8983059"
     ry="5.575182" />
  <path
     style="opacity:1;fill:#ffd144;fill-opacity:1;fill-rule:nonzero;stroke:none;stroke-width:0.5;stroke-linecap:round;stroke-linejoin:miter;stroke-miterlimit:4;stroke-dasharray:none;stroke-dashoffset:0;stroke-opacity:1"
     d="M 16 4.15625 A 11.844039 11.844039 0 0 0 14.966797 4.2089844 A 11.844039 11.844039 0 0 0 14.474609 4.2695312 A 11.844039 11.844039 0 0 0 13.783203 4.3730469 A 11.844039 11.844039 0 0 0 13.316406 4.4785156 A 11.844039 11.844039 0 0 0 12.638672 4.6523438 A 11.844039 11.844039 0 0 0 12.195312 4.7988281 A 11.844039 11.844039 0 0 0 11.496094 5.0566406 A 11.844039 11.844039 0 0 0 11.148438 5.2128906 A 11.844039 11.844039 0 0 0 10.417969 5.5644531 A 11.844039 11.844039 0 0 0 10.111328 5.7421875 A 11.844039 11.844039 0 0 0 9.3925781 6.1816406 A 11.844039 11.844039 0 0 0 9.0742188 6.4101562 A 11.844039 11.844039 0 0 0 8.5273438 6.8183594 A 11.844039 11.844039 0 0 0 8.5253906 6.8203125 L 5.7714844 6.8203125 L 5.7714844 10.050781 A 11.844039 11.844039 0 0 0 5.7695312 10.054688 A 11.844039 11.844039 0 0 0 5.2753906 11.005859 A 11.844039 11.844039 0 0 0 5.2089844 11.144531 A 11.844039 11.844039 0 0 0 4.859375 12.023438 A 11.844039 11.844039 0 0 0 4.7675781 12.273438 A 11.844039 11.844039 0 0 0 4.5371094 13.080078 A 11.844039 11.844039 0 0 0 4.4433594 13.445312 A 11.844039 11.844039 0 0 0 4.3085938 14.203125 A 11.844039 11.844039 0 0 0 4.2441406 14.621094 A 11.844039 11.844039 0 0 0 4.1914062 15.294922 A 11.844039 11.844039 0 0 0 4.15625 16 A 11.844039 11.844039 0 0 0 4.2128906 17.056641 A 11.844039 11.844039 0 0 0 4.2597656 17.443359 A 11.844039 11.844039 0 0 0 4.3867188 18.271484 A 11.844039 11.844039 0 0 0 4.4433594 18.529297 A 11.844039 11.844039 0 0 0 4.6796875 19.441406 A 11.844039 11.844039 0 0 0 4.734375 19.611328 A 11.844039 11.844039 0 0 0 5.1035156 20.609375 A 11.844039 11.844039 0 0 0 5.7714844 21.941406 L 5.7714844 25.179688 L 8.5292969 25.179688 A 11.844039 11.844039 0 0 0 9.4726562 25.873047 A 11.844039 11.844039 0 0 0 9.5429688 25.916016 A 11.844039 11.844039 0 0 0 10.472656 26.466797 A 11.844039 11.844039 0 0 0 10.667969 26.560547 A 11.844039 11.844039 0 0 0 11.537109 26.962891 A 11.844039 11.844039 0 0 0 11.779297 27.050781 A 11.844039 11.844039 0 0 0 12.642578 27.351562 A 11.844039 11.844039 0 0 0 12.990234 27.439453 A 11.844039 11.844039 0 0 0 13.767578 27.625 A 11.844039 11.844039 0 0 0 14.253906 27.699219 A 11.844039 11.844039 0 0 0 14.929688 27.791016 A 11.844039 11.844039 0 0 0 16 27.84375 A 11.844039 11.844039 0 0 0 17.033203 27.791016 A 11.844039 11.844039 0 0 0 17.525391 27.730469 A 11.844039 11.844039 0 0 0 18.216797 27.626953 A 11.844039 11.844039 0 0 0 18.683594 27.521484 A 11.844039 11.844039 0 0 0 19.361328 27.347656 A 11.844039 11.844039 0 0 0 19.804688 27.201172 A 11.844039 11.844039 0 0 0 20.503906 26.943359 A 11.844039 11.844039 0 0 0 20.851562 26.787109 A 11.844039 11.844039 0 0 0 21.582031 26.435547 A 11.844039 11.844039 0 0 0 21.888672 26.257812 A 11.844039 11.844039 0 0 0 22.607422 25.818359 A 11.844039 11.844039 0 0 0 22.925781 25.589844 A 11.844039 11.844039 0 0 0 23.472656 25.181641 A 11.844039 11.844039 0 0 0 23.474609 25.179688 L 26.228516 25.179688 L 26.228516 21.949219 A 11.844039 11.844039 0 0 0 26.230469 21.945312 A 11.844039 11.844039 0 0 0 26.724609 20.994141 A 11.844039 11.844039 0 0 0 26.791016 20.855469 A 11.844039 11.844039 0 0 0 27.140625 19.976562 A 11.844039 11.844039 0 0 0 27.232422 19.726562 A 11.844039 11.844039 0 0 0 27.462891 18.919922 A 11.844039 11.844039 0 0 0 27.556641 18.554688 A 11.844039 11.844039 0 0 0 27.691406 17.796875 A 11.844039 11.844039 0 0 0 27.755859 17.378906 A 11.844039 11.844039 0 0 0 27.808594 16.705078 A 11.844039 11.844039 0 0 0 27.84375 16 A 11.844039 11.844039 0 0 0 27.787109 14.943359 A 11.844039 11.844039 0 0 0 27.740234 14.556641 A 11.844039 11.844039 0 0 0 27.613281 13.728516 A 11.844039 11.844039 0 0 0 27.556641 13.470703 A 11.844039 11.844039 0 0 0 27.320312 12.558594 A 11.844039 11.844039 0 0 0 27.265625 12.388672 A 11.844039 11.844039 0 0 0 26.896484 11.390625 A 11.844039 11.844039 0 0 0 26.228516 10.058594 L 26.228516 6.8203125 L 23.470703 6.8203125 A 11.844039 11.844039 0 0 0 22.527344 6.1269531 A 11.844039 11.844039 0 0 0 22.517578 6.1191406 A 11.844039 11.844039 0 0 0 22.457031 6.0839844 A 11.844039 11.844039 0 0 0 21.527344 5.5332031 A 11.844039 11.844039 0 0 0 21.332031 5.4394531 A 11.844039 11.844039 0 0 0 20.462891 5.0371094 A 11.844039 11.844039 0 0 0 20.220703 4.9492188 A 11.844039 11.844039 0 0 0 19.357422 4.6484375 A 11.844039 11.844039 0 0 0 19.009766 4.5605469 A 11.844039 11.844039 0 0 0 18.232422 4.375 A 11.844039 11.844039 0 0 0 17.746094 4.3007812 A 11.844039 11.844039 0 0 0 17.070312 4.2089844 A 11.844039 11.844039 0 0 0 16 4.15625 z "
     id="rect4598" />
  <circle
     style="opacity:1;fill:#4b5e83;fill-opacity:1;fill-rule:nonzero;stroke:none;stroke-width:0.60000008;stroke-linecap:round;stroke-linejoin:miter;stroke-miterlimit:4;stroke-dasharray:none;stroke-dashoffset:0;stroke-opacity:1"
     id="path4515"
     cx="16"
     cy="16"
     r="9.5772371" />
  <path
     style="fill:#ffffff;fill-opacity:1;stroke:none;stroke-width:1px;stroke-linecap:butt;stroke-linejoin:miter;stroke-opacity:1"
     d="M 9.5996094 9.4609375 L 12.3125 21.296875 L 12.064453 22.529297 L 15.505859 22.539062 L 15.21875 21.398438 L 16 18.572266 L 16.78125 21.398438 L 16.494141 22.539062 L 16.494141 22.541016 L 16.496094 22.539062 L 19.935547 22.529297 L 19.6875 21.296875 L 22.400391 9.4609375 L 19.523438 9.4609375 L 19.619141 10.681641 L 17.9375 17.994141 L 16 10.298828 L 14.0625 17.994141 L 12.380859 10.681641 L 12.476562 9.4609375 L 9.5996094 9.4609375 z M 13.509766 21.267578 L 14.0625 21.267578 L 13.509766 21.269531 L 13.509766 21.267578 z M 17.9375 21.267578 L 18.490234 21.267578 L 18.490234 21.269531 L 17.9375 21.267578 z "
     id="path4615-5-6" />
</svg>

<svg xmlns="http://www.w3.org/2000/svg" height="32" width="32" version="1"><rect width="28.203" height="28.203" x="1.898" y="1.898" ry="5.575" fill="#4b5e83" fill-rule="evenodd"/><path d="M16 4.156a11.844 11.844 0 0 0-1.033.053 11.844 11.844 0 0 0-.492.06 11.844 11.844 0 0 0-.692.104 11.844 11.844 0 0 0-.467.106 11.844 11.844 0 0 0-.677.173 11.844 11.844 0 0 0-.444.147 11.844 11.844 0 0 0-.699.258 11.844 11.844 0 0 0-.348.156 11.844 11.844 0 0 0-.73.351 11.844 11.844 0 0 0-.307.178 11.844 11.844 0 0 0-.718.44 11.844 11.844 0 0 0-.319.228 11.844 11.844 0 0 0-.547.408 11.844 11.844 0 0 0-.002.002H5.771v3.23a11.844 11.844 0 0 0-.001.005 11.844 11.844 0 0 0-.495.95 11.844 11.844 0 0 0-.066.14 11.844 11.844 0 0 0-.35.878 11.844 11.844 0 0 0-.091.25 11.844 11.844 0 0 0-.23.807 11.844 11.844 0 0 0-.095.365 11.844 11.844 0 0 0-.134.758 11.844 11.844 0 0 0-.065.418 11.844 11.844 0 0 0-.053.674 11.844 11.844 0 0 0-.035.705 11.844 11.844 0 0 0 .057 1.057 11.844 11.844 0 0 0 .047.386 11.844 11.844 0 0 0 .127.828 11.844 11.844 0 0 0 .056.258 11.844 11.844 0 0 0 .237.912 11.844 11.844 0 0 0 .054.17 11.844 11.844 0 0 0 .37.998 11.844 11.844 0 0 0 .667 1.332v3.239H8.53a11.844 11.844 0 0 0 .944.693 11.844 11.844 0 0 0 .07.043 11.844 11.844 0 0 0 .93.55 11.844 11.844 0 0 0 .195.095 11.844 11.844 0 0 0 .87.402 11.844 11.844 0 0 0 .241.088 11.844 11.844 0 0 0 .864.3 11.844 11.844 0 0 0 .347.088 11.844 11.844 0 0 0 .778.186 11.844 11.844 0 0 0 .486.074 11.844 11.844 0 0 0 .676.092 11.844 11.844 0 0 0 1.07.053 11.844 11.844 0 0 0 1.033-.053 11.844 11.844 0 0 0 .492-.06 11.844 11.844 0 0 0 .692-.104 11.844 11.844 0 0 0 .467-.106 11.844 11.844 0 0 0 .677-.173 11.844 11.844 0 0 0 .444-.147 11.844 11.844 0 0 0 .699-.258 11.844 11.844 0 0 0 .348-.156 11.844 11.844 0 0 0 .73-.351 11.844 11.844 0 0 0 .307-.178 11.844 11.844 0 0 0 .718-.44 11.844 11.844 0 0 0 .319-.228 11.844 11.844 0 0 0 .547-.408 11.844 11.844 0 0 0 .002-.002h2.754v-3.23a11.844 11.844 0 0 0 .001-.005 11.844 11.844 0 0 0 .495-.95 11.844 11.844 0 0 0 .066-.14 11.844 11.844 0 0 0 .35-.878 11.844 11.844 0 0 0 .091-.25 11.844 11.844 0 0 0 .23-.807 11.844 11.844 0 0 0 .095-.365 11.844 11.844 0 0 0 .134-.758 11.844 11.844 0 0 0 .065-.418 11.844 11.844 0 0 0 .053-.674 11.844 11.844 0 0 0 .035-.705 11.844 11.844 0 0 0-.057-1.057 11.844 11.844 0 0 0-.047-.386 11.844 11.844 0 0 0-.127-.828 11.844 11.844 0 0 0-.056-.258 11.844 11.844 0 0 0-.237-.912 11.844 11.844 0 0 0-.054-.17 11.844 11.844 0 0 0-.37-.998 11.844 11.844 0 0 0-.667-1.332V6.82H23.47a11.844 11.844 0 0 0-.944-.693 11.844 11.844 0 0 0-.01-.008 11.844 11.844 0 0 0-.06-.035 11.844 11.844 0 0 0-.93-.55 11.844 11.844 0 0 0-.195-.095 11.844 11.844 0 0 0-.87-.402 11.844 11.844 0 0 0-.241-.088 11.844 11.844 0 0 0-.864-.3 11.844 11.844 0 0 0-.347-.088 11.844 11.844 0 0 0-.778-.186 11.844 11.844 0 0 0-.486-.074 11.844 11.844 0 0 0-.676-.092A11.844 11.844 0 0 0 16 4.156z" fill="#ffd144"/><circle cx="16" cy="16" r="9.577" fill="#4b5e83"/><path d="M9.6 9.46l2.713 11.837-.249 1.232 3.442.01-.287-1.14.781-2.827.781 2.826-.287 1.141v.002l.002-.002 3.44-.01-.248-1.232L22.4 9.46h-2.877l.096 1.22-1.681 7.313L16 10.3l-1.938 7.695-1.681-7.312.096-1.221H9.6zm3.91 11.808h.553l-.553.002v-.002zm4.428 0h.552v.002l-.552-.002z" fill="#fff"/></svg>
